static/projects/rollup/logo.svg

<svg xmlns="http://www.w3.org/2000/svg" xml:space="preserve" fill-rule="evenodd" stroke-linejoin="round" stroke-miterlimit="2" clip-rule="evenodd" viewBox="0 0 800 800">
  <path fill="url(#a)" fill-rule="nonzero" d="M721 410c0-33.6-8.8-65.1-24.3-92.4-41.1-42.3-130.5-52.1-152.7-.2-22.8 53.2 38.3 112.4 65 107.7 34-6-6-84-6-84 52 98 40 68-54 158S359 779 345 787l-1.9 1h368.7a8.8 8.8 0 0 0 7.8-12.7l-96.4-190.8a8.7 8.7 0 0 1 3.4-11.5A187.7 187.7 0 0 0 721 410Z" transform="translate(-213.9 -215) scale(1.22652)"/>
  <path fill="url(#b)" fill-rule="nonzero" d="M721 410c0-33.6-8.8-65.1-24.3-92.4-41.1-42.3-130.5-52.1-152.7-.2-22.8 53.2 38.3 112.4 65 107.7 34-6-6-84-6-84 52 98 40 68-54 158S359 779 345 787l-1.9 1h368.7a8.8 8.8 0 0 0 7.8-12.7l-96.4-190.8a8.7 8.7 0 0 1 3.4-11.5A187.7 187.7 0 0 0 721 410Z" transform="translate(-213.9 -215) scale(1.22652)"/>
  <path fill="url(#c)" fill-rule="nonzero" d="M345 787c14-8 110-198 204-288s106-60 54-158c0 0-199 279-271 417" transform="translate(-213.9 -215) scale(1.22652)"/>
  <path fill="url(#d)" fill-rule="nonzero" d="M373 537c134.4-247.1 152-272 222-272 36.8 0 73.9 16.6 97.9 46.1a187.7 187.7 0 0 0-156.9-89H307.7a8.7 8.7 0 0 0-8.7 8.7V691c13.6-35.1 36.7-85.3 74-154Z" transform="translate(-213.9 -215) scale(1.22652)"/>
  <path fill="url(#e)" fill-rule="nonzero" d="M549 499c-94 90-190 280-204 288s-37.5 9-50-5c-13.3-14.9-34-39 78-245 134.4-247.1 152-272 222-272 36.8 0 73.9 16.6 97.9 46.1l3.9 6.5c-41.1-42.3-130.5-52.1-152.7-.2-22.8 53.2 38.3 112.4 65 107.7 34-6-6-84-6-84C655 439 643 409 549 499Z" transform="translate(-213.9 -215) scale(1.22652)"/>
  <path fill="url(#f)" fill-rule="nonzero" d="M384 548c134.4-247.1 152-272 222-272 30.3 0 60.8 11.3 84 31.7a127.5 127.5 0 0 0-95-42.7c-70 0-87.6 24.9-222 272-112 206-91.3 230.1-78 245 1.9 2.1 4.1 3.9 6.4 5.4-11.7-17-16.9-56.5 82.6-239.4Z" transform="translate(-213.9 -215) scale(1.22652)"/>
  <defs>
    <linearGradient id="a" x1="0" x2="1" y1="0" y2="0" gradientTransform="matrix(154 36 -36 154 444.5 526)" gradientUnits="userSpaceOnUse">
      <stop offset="0" stop-color="#ff6533"/>
      <stop offset=".2" stop-color="#ff5633"/>
      <stop offset=".4" stop-color="#ff4333"/>
      <stop offset=".7" stop-color="#ff3733"/>
      <stop offset="1" stop-color="#f33"/>
    </linearGradient>
    <linearGradient id="b" x1="0" x2="1" y1="0" y2="0" gradientTransform="matrix(276.001 214 -214 276.001 420.4 475)" gradientUnits="userSpaceOnUse">
      <stop offset="0" stop-color="#bf3338"/>
      <stop offset="1" stop-color="#f33"/>
    </linearGradient>
    <linearGradient id="c" x1="0" x2="1" y1="0" y2="0" gradientTransform="matrix(40 42 -42 40 429.4 517.2)" gradientUnits="userSpaceOnUse">
      <stop offset="0" stop-color="#ff6533"/>
      <stop offset=".2" stop-color="#ff5633"/>
      <stop offset=".4" stop-color="#ff4333"/>
      <stop offset=".7" stop-color="#ff3733"/>
      <stop offset="1" stop-color="#f33"/>
    </linearGradient>
    <linearGradient id="d" x1="0" x2="1" y1="0" y2="0" gradientTransform="matrix(-12 -172 172 -12 502.1 589.5)" gradientUnits="userSpaceOnUse">
      <stop offset="0" stop-color="#ff6533"/>
      <stop offset=".2" stop-color="#ff5633"/>
      <stop offset=".4" stop-color="#ff4333"/>
      <stop offset=".7" stop-color="#ff3733"/>
      <stop offset="1" stop-color="#f33"/>
    </linearGradient>
    <linearGradient id="e" x1="0" x2="1" y1="0" y2="0" gradientTransform="scale(68.71) rotate(34.2 -8.9 14.4)" gradientUnits="userSpaceOnUse">
      <stop offset="0" stop-color="#fbb040"/>
      <stop offset="1" stop-color="#fb8840"/>
    </linearGradient>
    <linearGradient id="f" x1="0" x2="1" y1="0" y2="0" gradientTransform="matrix(-58 638 -638 -58 508.3 295.8)" gradientUnits="userSpaceOnUse">
      <stop offset="0" stop-color="#fff" stop-opacity=".3"/>
      <stop offset="1" stop-color="#fff" stop-opacity="0"/>
    </linearGradient>
  </defs>
</svg>

<?xml version="1.0" encoding="UTF-8" standalone="no"?>
<!DOCTYPE svg PUBLIC "-//W3C//DTD SVG 1.1//EN" "http://www.w3.org/Graphics/SVG/1.1/DTD/svg11.dtd">
<svg width="100%" height="100%" viewBox="0 0 800 800" version="1.1" xmlns="http://www.w3.org/2000/svg" xmlns:xlink="http://www.w3.org/1999/xlink" xml:space="preserve" xmlns:serif="http://www.serif.com/" style="fill-rule:evenodd;clip-rule:evenodd;stroke-linejoin:round;stroke-miterlimit:2;">
    <g id="XMLID_15_" transform="matrix(1.22652,0,0,1.22652,-213.861,-214.951)">
        <path d="M721,410C721,376.4 712.2,344.9 696.7,317.6C655.6,275.3 566.2,265.5 544,317.4C521.2,370.6 582.3,429.8 609,425.1C643,419.1 603,341.1 603,341.1C655,439.1 643,409.1 549,499.1C455,589.1 359,779 345,787C344.4,787.4 343.8,787.7 343.1,788L711.8,788C718.3,788 722.5,781.1 719.6,775.3L623.2,584.5C621.1,580.4 622.6,575.3 626.6,573C683,540.6 721,479.8 721,410Z" style="fill:url(#_Linear1);fill-rule:nonzero;"/>
    </g>
    <g id="XMLID_10_" transform="matrix(1.22652,0,0,1.22652,-213.861,-214.951)">
        <path d="M721,410C721,376.4 712.2,344.9 696.7,317.6C655.6,275.3 566.2,265.5 544,317.4C521.2,370.6 582.3,429.8 609,425.1C643,419.1 603,341.1 603,341.1C655,439.1 643,409.1 549,499.1C455,589.1 359,779 345,787C344.4,787.4 343.8,787.7 343.1,788L711.8,788C718.3,788 722.5,781.1 719.6,775.3L623.2,584.5C621.1,580.4 622.6,575.3 626.6,573C683,540.6 721,479.8 721,410Z" style="fill:url(#_Linear2);fill-rule:nonzero;"/>
    </g>
    <g id="XMLID_3_" transform="matrix(1.22652,0,0,1.22652,-213.861,-214.951)">
        <path d="M345,787C359,779 455,589 549,499C643,409 655,439 603,341C603,341 404,620 332,758" style="fill:url(#_Linear3);fill-rule:nonzero;"/>
    </g>
    <g id="XMLID_12_" transform="matrix(1.22652,0,0,1.22652,-213.861,-214.951)">
        <path d="M373,537C507.4,289.9 525,265 595,265C631.8,265 668.9,281.6 692.9,311.1C660.2,258.4 602.3,223.1 536,222.1L307.7,222.1C302.9,222.1 299,226 299,230.8L299,691C312.6,655.9 335.7,605.7 373,537Z" style="fill:url(#_Linear4);fill-rule:nonzero;"/>
    </g>
    <g id="XMLID_6_" transform="matrix(1.22652,0,0,1.22652,-213.861,-214.951)">
        <path d="M549,499C455,589 359,779 345,787C331,795 307.5,796 295,782C281.7,767.1 261,743 373,537C507.4,289.9 525,265 595,265C631.8,265 668.9,281.6 692.9,311.1C694.2,313.2 695.5,315.4 696.8,317.6C655.7,275.3 566.3,265.5 544.1,317.4C521.3,370.6 582.4,429.8 609.1,425.1C643.1,419.1 603.1,341.1 603.1,341.1C655,439 643,409 549,499Z" style="fill:url(#_Linear5);fill-rule:nonzero;"/>
    </g>
    <g id="XMLID_13_" transform="matrix(1.22652,0,0,1.22652,-213.861,-214.951)">
        <path d="M384,548C518.4,300.9 536,276 606,276C636.3,276 666.8,287.3 690,307.7C666,280.3 630.4,265 595,265C525,265 507.4,289.9 373,537C261,743 281.7,767.1 295,782C296.9,784.1 299.1,785.9 301.4,787.4C289.7,770.4 284.5,730.9 384,548Z" style="fill:url(#_Linear6);fill-rule:nonzero;"/>
    </g>
    <defs>
        <linearGradient id="_Linear1" x1="0" y1="0" x2="1" y2="0" gradientUnits="userSpaceOnUse" gradientTransform="matrix(154,36,-36,154,444.469,526.051)"><stop offset="0" style="stop-color:rgb(255,101,51);stop-opacity:1"/><stop offset="0.16" style="stop-color:rgb(255,86,51);stop-opacity:1"/><stop offset="0.43" style="stop-color:rgb(255,67,51);stop-opacity:1"/><stop offset="0.71" style="stop-color:rgb(255,55,51);stop-opacity:1"/><stop offset="1" style="stop-color:rgb(255,51,51);stop-opacity:1"/></linearGradient>
        <linearGradient id="_Linear2" x1="0" y1="0" x2="1" y2="0" gradientUnits="userSpaceOnUse" gradientTransform="matrix(276.001,214,-214,276.001,420.382,475.002)"><stop offset="0" style="stop-color:rgb(191,51,56);stop-opacity:1"/><stop offset="1" style="stop-color:rgb(255,51,51);stop-opacity:1"/></linearGradient>
        <linearGradient id="_Linear3" x1="0" y1="0" x2="1" y2="0" gradientUnits="userSpaceOnUse" gradientTransform="matrix(40,42,-42,40,429.386,517.156)"><stop offset="0" style="stop-color:rgb(255,101,51);stop-opacity:1"/><stop offset="0.16" style="stop-color:rgb(255,86,51);stop-opacity:1"/><stop offset="0.43" style="stop-color:rgb(255,67,51);stop-opacity:1"/><stop offset="0.71" style="stop-color:rgb(255,55,51);stop-opacity:1"/><stop offset="1" style="stop-color:rgb(255,51,51);stop-opacity:1"/></linearGradient>
        <linearGradient id="_Linear4" x1="0" y1="0" x2="1" y2="0" gradientUnits="userSpaceOnUse" gradientTransform="matrix(-12,-172,172,-12,502.111,589.457)"><stop offset="0" style="stop-color:rgb(255,101,51);stop-opacity:1"/><stop offset="0.16" style="stop-color:rgb(255,86,51);stop-opacity:1"/><stop offset="0.43" style="stop-color:rgb(255,67,51);stop-opacity:1"/><stop offset="0.71" style="stop-color:rgb(255,55,51);stop-opacity:1"/><stop offset="1" style="stop-color:rgb(255,51,51);stop-opacity:1"/></linearGradient>
        <linearGradient id="_Linear5" x1="0" y1="0" x2="1" y2="0" gradientUnits="userSpaceOnUse" gradientTransform="matrix(56.818,38.637,-38.637,56.818,450.125,514.209)"><stop offset="0" style="stop-color:rgb(251,176,64);stop-opacity:1"/><stop offset="1" style="stop-color:rgb(251,136,64);stop-opacity:1"/></linearGradient>
        <linearGradient id="_Linear6" x1="0" y1="0" x2="1" y2="0" gradientUnits="userSpaceOnUse" gradientTransform="matrix(-58,638,-638,-58,508.333,295.758)"><stop offset="0" style="stop-color:white;stop-opacity:0.3"/><stop offset="1" style="stop-color:white;stop-opacity:0"/></linearGradient>
    </defs>
</svg>
